X:1
T:What God Hath Promised
T:William Marion Runyan
T:What God Hath Promised
T:Public Domain
T:Public Domain
C:William Marion Runyan
Z:Public Domain
%%score ( 1 2 ) ( 3 4 )
L:1/8
M:4/4
K:Ab
V:1 treble 
V:2 treble 
V:3 bass 
V:4 bass 
V:1
 [Ec]2 [CA]>[DB] [Ec] [Ec]3 | [Fd]2 [Fd]>[Fd] [Ec]4 | [Ec]2 [DB]>[CA] [DG] [DB]3 | %3
w: 1.~God hath not prom- ised|skies al- ways blue,|Flow- er strewn path- ways|
w: 2.~God hath not prom- ised|we shall not know|Toil and temp- ta- tion,|
w: 3.~God hath not prom- ised|smooth roads and wide,|Swift, ea- sy trav- el,|
 [Fd]2 [Ec]>[DB] [CA]4 | [Ec]2 [CA]>[DB] [Ec] [Ec]3 | [Fd]2 [Fd]>[Fd] [Ec]4 | %6
w: all our lives through;|God hath not prom- ised|sun with- out rain,|
w: trou- ble and woe;|He hath not told us|we shall not bear|
w: need- ing no guide;|Nev- er a mount- ain|rock- y and steep,|
 [Ec]2 [Ed]>[EB] [Ee]2 [CA]2 | [=DF]2 [EG]>[DA] [_DB]4 || %8
w: Joy with- out sor- row,|peace with- out pain.|
w: Man- y a bur- den,|man- y a care.|
w: Nev- er a riv- er|tur- bid and deep.|
"^Refrain" ([CA][Ec]) [Ae]>[Ad] [Ec] [EA]3 | [FA]2 [Fd]>[Fd] [Ec]4 | [Ec]2 [DB]>[CA] [DG] [DB]3 | %11
w: |||
w: But * God hath prom- ised|strength for the day,|Rest for the la- bor,|
w: |||
 [Fd]2 [Ec]>[DB] [CA]4 | [Ac]2 [Ac][Ac] [Ad]2 [Ad]2 | [A=d]2 [Ad]>[Ad] (A2 G2) | %14
w: |||
w: light for the way,|Grace for the tri- als,|help from a- bove, *|
w: |||
 [Ee]2 [Ed][Ec] [DB]>[DA] (GF) | ([CE][Ec]) [DB]>[DE] [CA]4 |] %16
w: ||
w: fail- ing sym- pa- thy, un- *|ing * love. * *|
w: ||
V:2
 x8 | x8 | x8 | x8 | x8 | x8 | x8 | x8 || x8 | x8 | x8 | x8 | x8 | x4 e4 | x6 =B,2 | x8 |] %16
w: ||||||||||||||||
w: |||||||||||||Un-|dy-||
V:3
 [A,,A,]2 [A,,E,]>[A,,E,] [A,,A,] [A,,A,]3 | [D,A,]2 [D,A,]>[F,A,] A,4 | %2
 [E,A,]2 [E,G,]>[E,A,] [E,B,] [E,G,]3 | [E,G,]2 [E,G,]>[E,G,] [A,,A,]4 | %4
 [A,,A,]2 [A,,E,]>[A,,E,] [A,,A,] [A,,A,]3 | [D,A,]2 [D,A,]>[F,A,] A,4 | %6
 [A,,A,]2 [B,,G,]>[D,G,] [C,A,]2 [F,A,]2 | [A,B,]2 [G,B,]>[F,A,] [E,G,]4 || %8
 A,2 [A,C]>[A,B,] A, [A,C]3 | [D,D]2 [D,A,]>[D,A,] [A,,A,]4 | %10
 [E,A,]2 [E,G,]>[E,A,] [E,B,] [E,G,]3 | [E,G,]2 [E,G,]>[E,G,] [A,,A,]4 | %12
 [A,E]2 [A,E][_G,E] [F,D]2 [F,D]2 | [_F,=B,]2 [F,B,]>[F,B,] [E,C]2 [D,_B,]2 | %14
 [C,A,]2 [B,,G,][A,,A,] [D,F,]>[D,F,] [=D,A,]2 | [E,A,]2 [E,G,]>E, [A,,E,]4 |] %16
V:4
 x8 | x4 A,4 | x8 | x8 | x8 | x4 A,4 | x8 | x8 || A,2 A, x5 | x8 | x8 | x8 | x8 | x8 | x8 | x8 |] %16

